algorithms/cpu-scheduling/fcfs/queue-and-cpu.svg

<svg width="1193" height="402" viewBox="0 0 1193 402" fill="none" xmlns="http://www.w3.org/2000/svg">
<rect x="361" y="158" width="136" height="136" rx="27" stroke="#DBDBDB" stroke-width="2" stroke-dasharray="20 20"/>
<rect x="205" y="158" width="136" height="136" rx="27" stroke="#DBDBDB" stroke-width="2" stroke-dasharray="20 20"/>
<rect x="49" y="158" width="136" height="136" rx="27" stroke="#DBDBDB" stroke-width="2" stroke-dasharray="20 20"/>
<rect x="1" y="128" width="550" height="197" rx="27" stroke="#DBDBDB" stroke-width="2"/>
<path d="M435.869 227.966V231.091H423.142V227.966H435.869Z" fill="white"/>
<path d="M279.869 227.966V231.091H267.142V227.966H279.869Z" fill="white"/>
<path d="M123.869 227.966V231.091H111.142V227.966H123.869Z" fill="white"/>
<path d="M227.833 75.9091H231.697L234.935 80.1705L235.788 81.3068L240.617 87.7273H236.754L233.572 83.4659L232.776 82.3864L227.833 75.9091ZM241.81 70.4545C241.81 73.5227 241.256 76.1742 240.148 78.4091C239.04 80.6439 237.521 82.3674 235.589 83.5795C233.657 84.7917 231.451 85.3977 228.969 85.3977C226.488 85.3977 224.282 84.7917 222.35 83.5795C220.418 82.3674 218.898 80.6439 217.79 78.4091C216.683 76.1742 216.129 73.5227 216.129 70.4545C216.129 67.3864 216.683 64.7348 217.79 62.5C218.898 60.2652 220.418 58.5417 222.35 57.3295C224.282 56.1174 226.488 55.5114 228.969 55.5114C231.451 55.5114 233.657 56.1174 235.589 57.3295C237.521 58.5417 239.04 60.2652 240.148 62.5C241.256 64.7348 241.81 67.3864 241.81 70.4545ZM238.401 70.4545C238.401 67.9356 237.98 65.8097 237.137 64.0767C236.304 62.3438 235.172 61.0322 233.742 60.142C232.322 59.2519 230.731 58.8068 228.969 58.8068C227.208 58.8068 225.612 59.2519 224.183 60.142C222.762 61.0322 221.63 62.3438 220.788 64.0767C219.954 65.8097 219.538 67.9356 219.538 70.4545C219.538 72.9735 219.954 75.0994 220.788 76.8324C221.63 78.5653 222.762 79.8769 224.183 80.767C225.612 81.6572 227.208 82.1023 228.969 82.1023C230.731 82.1023 232.322 81.6572 233.742 80.767C235.172 79.8769 236.304 78.5653 237.137 76.8324C237.98 75.0994 238.401 72.9735 238.401 70.4545ZM261.029 76.0795V63.1818H264.381V85H261.029V81.3068H260.802C260.29 82.4148 259.495 83.357 258.415 84.1335C257.336 84.9006 255.972 85.2841 254.325 85.2841C252.961 85.2841 251.749 84.9858 250.688 84.3892C249.628 83.7831 248.794 82.8741 248.188 81.6619C247.582 80.4403 247.279 78.9015 247.279 77.0455V63.1818H250.631V76.8182C250.631 78.4091 251.076 79.678 251.967 80.625C252.866 81.572 254.012 82.0455 255.404 82.0455C256.237 82.0455 257.085 81.8324 257.947 81.4062C258.818 80.9801 259.547 80.3267 260.134 79.446C260.731 78.5653 261.029 77.4432 261.029 76.0795ZM279.669 85.4545C277.567 85.4545 275.753 84.9905 274.229 84.0625C272.714 83.125 271.544 81.8182 270.72 80.142C269.906 78.4564 269.499 76.4962 269.499 74.2614C269.499 72.0265 269.906 70.0568 270.72 68.3523C271.544 66.6383 272.69 65.303 274.158 64.3466C275.635 63.3807 277.358 62.8977 279.328 62.8977C280.464 62.8977 281.587 63.0871 282.695 63.4659C283.803 63.8447 284.811 64.4602 285.72 65.3125C286.629 66.1553 287.354 67.2727 287.893 68.6648C288.433 70.0568 288.703 71.7708 288.703 73.8068V75.2273H271.885V72.3295H285.294C285.294 71.0985 285.048 70 284.555 69.0341C284.072 68.0682 283.381 67.3059 282.482 66.7472C281.591 66.1884 280.54 65.9091 279.328 65.9091C277.993 65.9091 276.838 66.2405 275.862 66.9034C274.896 67.5568 274.153 68.4091 273.632 69.4602C273.111 70.5114 272.851 71.6383 272.851 72.8409V74.7727C272.851 76.4205 273.135 77.8172 273.703 78.9631C274.281 80.0994 275.081 80.9659 276.104 81.5625C277.126 82.1496 278.315 82.4432 279.669 82.4432C280.55 82.4432 281.345 82.3201 282.055 82.0739C282.775 81.8182 283.395 81.4394 283.916 80.9375C284.437 80.4261 284.839 79.7917 285.124 79.0341L288.362 79.9432C288.021 81.0417 287.448 82.0076 286.643 82.8409C285.839 83.6648 284.844 84.3087 283.661 84.7727C282.477 85.2273 281.146 85.4545 279.669 85.4545ZM307.553 76.0795V63.1818H310.905V85H307.553V81.3068H307.325C306.814 82.4148 306.018 83.357 304.939 84.1335C303.859 84.9006 302.496 85.2841 300.848 85.2841C299.484 85.2841 298.272 84.9858 297.212 84.3892C296.151 83.7831 295.318 82.8741 294.712 81.6619C294.106 80.4403 293.803 78.9015 293.803 77.0455V63.1818H297.155V76.8182C297.155 78.4091 297.6 79.678 298.49 80.625C299.39 81.572 300.536 82.0455 301.928 82.0455C302.761 82.0455 303.608 81.8324 304.47 81.4062C305.341 80.9801 306.071 80.3267 306.658 79.446C307.254 78.5653 307.553 77.4432 307.553 76.0795ZM326.192 85.4545C324.09 85.4545 322.277 84.9905 320.752 84.0625C319.237 83.125 318.067 81.8182 317.244 80.142C316.429 78.4564 316.022 76.4962 316.022 74.2614C316.022 72.0265 316.429 70.0568 317.244 68.3523C318.067 66.6383 319.213 65.303 320.681 64.3466C322.158 63.3807 323.882 62.8977 325.852 62.8977C326.988 62.8977 328.11 63.0871 329.218 63.4659C330.326 63.8447 331.335 64.4602 332.244 65.3125C333.153 66.1553 333.877 67.2727 334.417 68.6648C334.957 70.0568 335.227 71.7708 335.227 73.8068V75.2273H318.408V72.3295H331.817C331.817 71.0985 331.571 70 331.079 69.0341C330.596 68.0682 329.905 67.3059 329.005 66.7472C328.115 66.1884 327.064 65.9091 325.852 65.9091C324.516 65.9091 323.361 66.2405 322.386 66.9034C321.42 67.5568 320.676 68.4091 320.156 69.4602C319.635 70.5114 319.374 71.6383 319.374 72.8409V74.7727C319.374 76.4205 319.658 77.8172 320.227 78.9631C320.804 80.0994 321.604 80.9659 322.627 81.5625C323.65 82.1496 324.838 82.4432 326.192 82.4432C327.073 82.4432 327.869 82.3201 328.579 82.0739C329.299 81.8182 329.919 81.4394 330.44 80.9375C330.96 80.4261 331.363 79.7917 331.647 79.0341L334.886 79.9432C334.545 81.0417 333.972 82.0076 333.167 82.8409C332.362 83.6648 331.368 84.3087 330.184 84.7727C329 85.2273 327.67 85.4545 326.192 85.4545Z" fill="white"/>
<path d="M1043.36 19H1039.84C1039.63 17.9867 1039.27 17.0966 1038.75 16.3295C1038.23 15.5625 1037.61 14.9186 1036.87 14.3977C1036.14 13.8674 1035.33 13.4697 1034.44 13.2045C1033.55 12.9394 1032.62 12.8068 1031.66 12.8068C1029.9 12.8068 1028.3 13.2519 1026.87 14.142C1025.45 15.0322 1024.32 16.3438 1023.48 18.0767C1022.64 19.8097 1022.23 21.9356 1022.23 24.4545C1022.23 26.9735 1022.64 29.0994 1023.48 30.8324C1024.32 32.5653 1025.45 33.8769 1026.87 34.767C1028.3 35.6572 1029.9 36.1023 1031.66 36.1023C1032.62 36.1023 1033.55 35.9697 1034.44 35.7045C1035.33 35.4394 1036.14 35.0464 1036.87 34.5256C1037.61 33.9953 1038.23 33.3466 1038.75 32.5795C1039.27 31.803 1039.63 30.9129 1039.84 29.9091H1043.36C1043.1 31.3958 1042.61 32.7263 1041.91 33.9006C1041.21 35.0748 1040.34 36.0739 1039.3 36.8977C1038.26 37.7121 1037.09 38.3324 1035.79 38.7585C1034.5 39.1847 1033.12 39.3977 1031.66 39.3977C1029.18 39.3977 1026.97 38.7917 1025.04 37.5795C1023.11 36.3674 1021.59 34.6439 1020.48 32.4091C1019.37 30.1742 1018.82 27.5227 1018.82 24.4545C1018.82 21.3864 1019.37 18.7348 1020.48 16.5C1021.59 14.2652 1023.11 12.5417 1025.04 11.3295C1026.97 10.1174 1029.18 9.51136 1031.66 9.51136C1033.12 9.51136 1034.5 9.72443 1035.79 10.1506C1037.09 10.5767 1038.26 11.2017 1039.3 12.0256C1040.34 12.84 1041.21 13.8343 1041.91 15.0085C1042.61 16.1733 1043.1 17.5038 1043.36 19ZM1049.05 39V9.90909H1058.88C1061.17 9.90909 1063.03 10.321 1064.48 11.1449C1065.94 11.9593 1067.02 13.0625 1067.72 14.4545C1068.42 15.8466 1068.77 17.3996 1068.77 19.1136C1068.77 20.8277 1068.42 22.3854 1067.72 23.7869C1067.03 25.1884 1065.96 26.3059 1064.51 27.1392C1063.06 27.9631 1061.2 28.375 1058.94 28.375H1051.89V25.25H1058.83C1060.39 25.25 1061.64 24.9801 1062.59 24.4403C1063.54 23.9006 1064.22 23.1714 1064.65 22.2528C1065.09 21.3248 1065.3 20.2784 1065.3 19.1136C1065.3 17.9489 1065.09 16.9072 1064.65 15.9886C1064.22 15.0701 1063.53 14.3504 1062.58 13.8295C1061.62 13.2992 1060.35 13.0341 1058.77 13.0341H1052.58V39H1049.05ZM1093.54 9.90909H1097.06V29.1705C1097.06 31.1591 1096.59 32.9347 1095.65 34.4972C1094.72 36.0502 1093.41 37.2765 1091.72 38.1761C1090.02 39.0663 1088.03 39.5114 1085.75 39.5114C1083.47 39.5114 1081.48 39.0663 1079.79 38.1761C1078.09 37.2765 1076.77 36.0502 1075.84 34.4972C1074.91 32.9347 1074.44 31.1591 1074.44 29.1705V9.90909H1077.97V28.8864C1077.97 30.3068 1078.28 31.571 1078.9 32.679C1079.53 33.7775 1080.42 34.6439 1081.58 35.2784C1082.74 35.9034 1084.13 36.2159 1085.75 36.2159C1087.37 36.2159 1088.76 35.9034 1089.93 35.2784C1091.09 34.6439 1091.98 33.7775 1092.6 32.679C1093.22 31.571 1093.54 30.3068 1093.54 28.8864V9.90909Z" fill="white"/>
<path d="M467.375 353.25L483.625 369.5L467.375 385.75" stroke="#DBDBDB" stroke-width="4" stroke-linecap="round" stroke-linejoin="round"/>
<line x1="79" y1="369.5" x2="481" y2="369.5" stroke="#DBDBDB" stroke-width="5"/>
<line x1="924" y1="202" x2="1193" y2="202" stroke="white" stroke-width="2"/>
<line x1="1083.5" y1="92.5" x2="1083.5" y2="361.5" stroke="white" stroke-width="2"/>
<line x1="924" y1="226" x2="1193" y2="226" stroke="white" stroke-width="2"/>
<line x1="1059.5" y1="92.5" x2="1059.5" y2="361.5" stroke="white" stroke-width="2"/>
<line x1="924" y1="250" x2="1193" y2="250" stroke="white" stroke-width="2"/>
<line x1="1035.5" y1="92.5" x2="1035.5" y2="361.5" stroke="white" stroke-width="2"/>
<rect x="961" y="129" width="196" height="196" rx="27" fill="#18181B" stroke="#DBDBDB" stroke-width="2"/>
<path d="M1002.6 242V212.909H1020.16V216.034H1006.12V225.864H1019.25V228.989H1006.12V238.875H1020.38V242H1002.6ZM1026.05 242V220.182H1029.29V223.591H1029.58C1030.03 222.426 1030.76 221.522 1031.78 220.878C1032.79 220.224 1034.01 219.898 1035.43 219.898C1036.87 219.898 1038.06 220.224 1039.02 220.878C1039.99 221.522 1040.74 222.426 1041.28 223.591H1041.51C1042.07 222.464 1042.9 221.569 1044.02 220.906C1045.14 220.234 1046.48 219.898 1048.04 219.898C1049.99 219.898 1051.59 220.509 1052.83 221.73C1054.07 222.942 1054.69 224.831 1054.69 227.398V242H1051.34V227.398C1051.34 225.788 1050.9 224.637 1050.02 223.946C1049.13 223.255 1048.1 222.909 1046.9 222.909C1045.37 222.909 1044.18 223.373 1043.34 224.301C1042.5 225.22 1042.08 226.384 1042.08 227.795V242H1038.67V227.057C1038.67 225.816 1038.26 224.817 1037.46 224.06C1036.65 223.293 1035.62 222.909 1034.35 222.909C1033.48 222.909 1032.66 223.141 1031.9 223.605C1031.16 224.069 1030.55 224.713 1030.09 225.537C1029.63 226.351 1029.4 227.294 1029.4 228.364V242H1026.05ZM1060.82 250.182V220.182H1064.06V223.648H1064.45C1064.7 223.269 1065.04 222.786 1065.48 222.199C1065.92 221.602 1066.56 221.072 1067.38 220.608C1068.21 220.134 1069.34 219.898 1070.76 219.898C1072.6 219.898 1074.22 220.357 1075.62 221.276C1077.02 222.194 1078.11 223.496 1078.9 225.182C1079.69 226.867 1080.08 228.856 1080.08 231.148C1080.08 233.458 1079.69 235.461 1078.9 237.156C1078.11 238.842 1077.03 240.149 1075.63 241.077C1074.24 241.995 1072.64 242.455 1070.82 242.455C1069.42 242.455 1068.29 242.223 1067.45 241.759C1066.61 241.285 1065.96 240.75 1065.51 240.153C1065.05 239.547 1064.7 239.045 1064.45 238.648H1064.17V250.182H1060.82ZM1064.11 231.091C1064.11 232.739 1064.36 234.192 1064.84 235.452C1065.32 236.702 1066.03 237.682 1066.95 238.392C1067.88 239.093 1069.02 239.443 1070.36 239.443C1071.77 239.443 1072.93 239.074 1073.87 238.335C1074.82 237.587 1075.53 236.583 1076 235.324C1076.49 234.055 1076.73 232.644 1076.73 231.091C1076.73 229.557 1076.49 228.174 1076.02 226.943C1075.55 225.703 1074.85 224.723 1073.9 224.003C1072.96 223.274 1071.78 222.909 1070.36 222.909C1069 222.909 1067.85 223.255 1066.93 223.946C1066 224.628 1065.3 225.584 1064.82 226.815C1064.35 228.037 1064.11 229.462 1064.11 231.091ZM1094.68 220.182V223.023H1083.38V220.182H1094.68ZM1086.67 214.955H1090.02V235.75C1090.02 236.697 1090.16 237.407 1090.43 237.881C1090.72 238.345 1091.08 238.657 1091.51 238.818C1091.96 238.97 1092.43 239.045 1092.92 239.045C1093.29 239.045 1093.59 239.027 1093.83 238.989C1094.07 238.941 1094.26 238.903 1094.4 238.875L1095.08 241.886C1094.85 241.972 1094.54 242.057 1094.13 242.142C1093.72 242.237 1093.2 242.284 1092.58 242.284C1091.63 242.284 1090.7 242.08 1089.8 241.673C1088.9 241.266 1088.15 240.646 1087.55 239.812C1086.96 238.979 1086.67 237.928 1086.67 236.659V214.955ZM1101.88 250.182C1101.32 250.182 1100.81 250.134 1100.36 250.04C1099.92 249.955 1099.61 249.869 1099.44 249.784L1100.29 246.83C1101.11 247.038 1101.83 247.114 1102.45 247.057C1103.08 247 1103.63 246.721 1104.11 246.219C1104.61 245.726 1105.06 244.926 1105.46 243.818L1106.09 242.114L1098.02 220.182H1101.66L1107.68 237.568H1107.91L1113.93 220.182H1117.57L1108.3 245.182C1107.89 246.309 1107.37 247.241 1106.76 247.98C1106.14 248.728 1105.43 249.282 1104.61 249.642C1103.81 250.002 1102.9 250.182 1101.88 250.182Z" fill="white"/>
</svg>

<svg xmlns="http://www.w3.org/2000/svg" width="1193" height="402" fill="none" viewBox="0 0 1193 402"><rect width="136" height="136" x="361" y="158" stroke="#dbdbdb" stroke-dasharray="20 20" stroke-width="2" rx="27"/><rect width="136" height="136" x="205" y="158" stroke="#dbdbdb" stroke-dasharray="20 20" stroke-width="2" rx="27"/><rect width="136" height="136" x="49" y="158" stroke="#dbdbdb" stroke-dasharray="20 20" stroke-width="2" rx="27"/><rect width="550" height="197" x="1" y="128" stroke="#dbdbdb" stroke-width="2" rx="27"/><path fill="#fff" d="M435.869 227.966v3.125h-12.727v-3.125zM279.869 227.966v3.125h-12.727v-3.125zM123.869 227.966v3.125h-12.727v-3.125zM227.833 75.91h3.864l3.238 4.26.853 1.137 4.829 6.42h-3.863l-3.182-4.261-.796-1.08zm13.977-5.456q0 4.603-1.662 7.955t-4.559 5.17q-2.898 1.82-6.62 1.819-3.721 0-6.619-1.819t-4.56-5.17q-1.66-3.352-1.661-7.955 0-4.602 1.661-7.954t4.56-5.17q2.898-1.82 6.619-1.819 3.722 0 6.62 1.819 2.897 1.818 4.559 5.17t1.662 7.954m-3.409 0q0-3.777-1.264-6.377-1.25-2.6-3.395-3.935-2.13-1.335-4.773-1.335t-4.786 1.335q-2.132 1.335-3.395 3.935-1.25 2.6-1.25 6.377 0 3.78 1.25 6.378 1.263 2.6 3.395 3.935 2.144 1.335 4.786 1.335 2.643 0 4.773-1.335 2.145-1.335 3.395-3.935 1.264-2.599 1.264-6.377m22.628 5.626V63.182h3.352V85h-3.352v-3.693h-.227q-.768 1.662-2.387 2.826-1.619 1.151-4.09 1.151-2.046 0-3.637-.895-1.59-.909-2.5-2.727-.909-1.832-.909-4.617V63.183h3.352v13.636q0 2.386 1.336 3.807 1.349 1.42 3.437 1.42 1.25 0 2.543-.639 1.307-.64 2.187-1.96.895-1.32.895-3.367m18.64 9.374q-3.154 0-5.44-1.391-2.273-1.407-3.509-3.921-1.221-2.529-1.221-5.88 0-3.353 1.221-5.91 1.236-2.571 3.438-4.005 2.215-1.45 5.17-1.45 1.705 0 3.367.569 1.662.568 3.025 1.846 1.364 1.264 2.173 3.353.81 2.088.81 5.142v1.42h-16.818V72.33h13.409q0-1.845-.739-3.295a5.57 5.57 0 0 0-2.073-2.287q-1.336-.838-3.154-.838-2.002 0-3.466.994a6.54 6.54 0 0 0-2.23 2.557 7.5 7.5 0 0 0-.781 3.38v1.933q0 2.471.852 4.19.867 1.704 2.401 2.6 1.533.88 3.565.88 1.321 0 2.386-.37a5.1 5.1 0 0 0 1.861-1.135q.781-.767 1.208-1.904l3.238.91a7.2 7.2 0 0 1-1.719 2.897q-1.207 1.236-2.982 1.932-1.776.681-3.992.681m27.884-9.374V63.182h3.352V85h-3.352v-3.693h-.228q-.767 1.662-2.386 2.826-1.62 1.151-4.091 1.151-2.046 0-3.636-.895-1.591-.909-2.5-2.727-.909-1.832-.909-4.617V63.183h3.352v13.636q0 2.386 1.335 3.807 1.35 1.42 3.438 1.42 1.25 0 2.542-.639 1.307-.64 2.188-1.96.894-1.32.895-3.367m18.639 9.374q-3.153 0-5.44-1.391-2.273-1.407-3.508-3.921-1.222-2.529-1.222-5.88 0-3.353 1.222-5.91 1.235-2.571 3.437-4.005 2.216-1.45 5.171-1.45 1.704 0 3.366.569 1.662.568 3.026 1.846 1.363 1.264 2.173 3.353.81 2.088.81 5.142v1.42h-16.819V72.33h13.409q0-1.845-.738-3.295a5.56 5.56 0 0 0-2.074-2.287q-1.335-.838-3.153-.838-2.004 0-3.466.994a6.53 6.53 0 0 0-2.23 2.557 7.5 7.5 0 0 0-.782 3.38v1.933q0 2.471.853 4.19.865 1.704 2.4 2.6 1.534.88 3.565.88 1.322 0 2.387-.37a5.1 5.1 0 0 0 1.861-1.135q.78-.767 1.207-1.904l3.239.91a7.2 7.2 0 0 1-1.719 2.897q-1.207 1.236-2.983 1.932-1.776.681-3.992.681M1043.36 19h-3.52c-.21-1.013-.57-1.903-1.09-2.67a7.4 7.4 0 0 0-1.88-1.932 8 8 0 0 0-2.43-1.194 9.7 9.7 0 0 0-2.78-.397c-1.76 0-3.36.445-4.79 1.335q-2.13 1.335-3.39 3.935c-.84 1.733-1.25 3.859-1.25 6.377 0 2.52.41 4.645 1.25 6.378q1.26 2.6 3.39 3.935c1.43.89 3.03 1.335 4.79 1.335a9.7 9.7 0 0 0 2.78-.397q1.335-.399 2.43-1.18a7.6 7.6 0 0 0 1.88-1.945c.52-.777.88-1.667 1.09-2.67h3.52c-.26 1.486-.75 2.816-1.45 3.99a10.9 10.9 0 0 1-2.61 2.998 11.4 11.4 0 0 1-3.51 1.86c-1.29.427-2.67.64-4.13.64-2.48 0-4.69-.606-6.62-1.819q-2.895-1.818-4.56-5.17c-1.11-2.235-1.66-4.886-1.66-7.954 0-3.069.55-5.72 1.66-7.955q1.665-3.352 4.56-5.17c1.93-1.213 4.14-1.819 6.62-1.819 1.46 0 2.84.213 4.13.64q1.95.638 3.51 1.875 1.56 1.22 2.61 2.983c.7 1.164 1.19 2.495 1.45 3.991m5.69 20V9.91h9.83c2.29 0 4.15.411 5.6 1.235q2.19 1.221 3.24 3.31t1.05 4.659-1.05 4.673q-1.035 2.102-3.21 3.352c-1.45.824-3.31 1.236-5.57 1.236h-7.05V25.25h6.94c1.56 0 2.81-.27 3.76-.81s1.63-1.269 2.06-2.187c.44-.928.65-1.975.65-3.14 0-1.164-.21-2.206-.65-3.124q-.645-1.379-2.07-2.16-1.44-.795-3.81-.795h-6.19V39zm44.49-29.09h3.52v19.26q0 2.985-1.41 5.327-1.395 2.33-3.93 3.68-2.55 1.335-5.97 1.334c-2.28 0-4.27-.445-5.96-1.335-1.7-.9-3.02-2.126-3.95-3.679-.93-1.562-1.4-3.338-1.4-5.326V9.909h3.53v18.977q0 2.13.93 3.793c.63 1.099 1.52 1.965 2.68 2.6q1.74.937 4.17.937c1.62 0 3.01-.313 4.18-.938q1.74-.95 2.67-2.599c.62-1.108.94-2.372.94-3.793z"/><path stroke="#dbdbdb" stroke-linecap="round" stroke-linejoin="round" stroke-width="4" d="m467.375 353.25 16.25 16.25-16.25 16.25"/><path stroke="#dbdbdb" stroke-width="5" d="M79 369.5h402"/><path stroke="#fff" stroke-width="2" d="M924 202h269M1083.5 92.5v269M924 226h269M1059.5 92.5v269M924 250h269M1035.5 92.5v269"/><rect width="196" height="196" x="961" y="129" fill="#18181b" stroke="#dbdbdb" stroke-width="2" rx="27"/><path fill="#fff" d="M1002.6 242v-29.091h17.56v3.125h-14.04v9.83h13.13v3.125h-13.13v9.886h14.26V242zm23.45 0v-21.818h3.24v3.409h.29c.45-1.165 1.18-2.069 2.2-2.713 1.01-.654 2.23-.98 3.65-.98 1.44 0 2.63.326 3.59.98.97.644 1.72 1.548 2.26 2.713h.23a6.34 6.34 0 0 1 2.51-2.685q1.68-1.008 4.02-1.008c1.95 0 3.55.611 4.79 1.832q1.86 1.818 1.86 5.668V242h-3.35v-14.602q0-2.415-1.32-3.452c-.89-.691-1.92-1.037-3.12-1.037-1.53 0-2.72.464-3.56 1.392q-1.26 1.378-1.26 3.494V242h-3.41v-14.943c0-1.241-.41-2.24-1.21-2.997-.81-.767-1.84-1.151-3.11-1.151-.87 0-1.69.232-2.45.696a5.27 5.27 0 0 0-1.81 1.932q-.69 1.221-.69 2.827V242zm34.77 8.182v-30h3.24v3.466h.39c.25-.379.59-.862 1.03-1.449.44-.597 1.08-1.127 1.9-1.591.83-.474 1.96-.71 3.38-.71q2.76 0 4.86 1.378c1.4.918 2.49 2.22 3.28 3.906s1.18 3.674 1.18 5.966c0 2.31-.39 4.313-1.18 6.008-.79 1.686-1.87 2.993-3.27 3.921-1.39.918-2.99 1.378-4.81 1.378-1.4 0-2.53-.232-3.37-.696-.84-.474-1.49-1.009-1.94-1.606a22 22 0 0 1-1.06-1.505h-.28v11.534zm3.29-19.091c0 1.648.25 3.101.73 4.361.48 1.25 1.19 2.23 2.11 2.94.93.701 2.07 1.051 3.41 1.051 1.41 0 2.57-.369 3.51-1.108q1.425-1.122 2.13-3.011c.49-1.269.73-2.68.73-4.233 0-1.534-.24-2.917-.71-4.148-.47-1.24-1.17-2.22-2.12-2.94q-1.41-1.094-3.54-1.094c-1.36 0-2.51.346-3.43 1.037-.93.682-1.63 1.638-2.11 2.869-.47 1.222-.71 2.647-.71 4.276m30.57-10.909v2.841h-11.3v-2.841zm-8.01-5.227h3.35v20.795c0 .947.14 1.657.41 2.131q.435.696 1.08.937.675.227 1.41.227c.37 0 .67-.018.91-.056l.57-.114.68 3.011c-.23.086-.54.171-.95.256-.41.095-.93.142-1.55.142-.95 0-1.88-.204-2.78-.611a5.56 5.56 0 0 1-2.25-1.861c-.59-.833-.88-1.884-.88-3.153zm15.21 35.227c-.56 0-1.07-.048-1.52-.142-.44-.085-.75-.171-.92-.256l.85-2.954q1.23.312 2.16.227c.63-.057 1.18-.336 1.66-.838q.75-.74 1.35-2.401l.63-1.704-8.07-21.932h3.64l6.02 17.386h.23l6.02-17.386h3.64l-9.27 25c-.41 1.127-.93 2.059-1.54 2.798-.62.748-1.33 1.302-2.15 1.662q-1.2.54-2.73.54"/></svg>
